assets/images/slider-arrow-next.svg

<svg fill="none" height="24" viewBox="0 0 24 24" width="24" xmlns="http://www.w3.org/2000/svg"><path d="m12 16-1.4-1.4 1.6-1.6h-4.2v-2h4.2l-1.6-1.6 1.4-1.4 4 4zm0 6c1.3833 0 2.6833-.2627 3.9-.788 1.2167-.5247 2.275-1.237 3.175-2.137s1.6123-1.9583 2.137-3.175c.5253-1.2167.788-2.5167.788-3.9s-.2627-2.68333-.788-3.9c-.5247-1.21667-1.237-2.275-2.137-3.175s-1.9583-1.61267-3.175-2.138c-1.2167-.52467-2.5167-.787-3.9-.787s-2.68333.26233-3.9.787c-1.21667.52533-2.275 1.238-3.175 2.138s-1.61233 1.95833-2.137 3.175c-.52533 1.21667-.788 2.5167-.788 3.9s.26267 2.6833.788 3.9c.52467 1.2167 1.237 2.275 2.137 3.175s1.95833 1.6123 3.175 2.137c1.21667.5253 2.5167.788 3.9.788zm0-2c-2.23333 0-4.125-.775-5.675-2.325s-2.325-3.4417-2.325-5.675c0-2.23333.775-4.125 2.325-5.675s3.44167-2.325 5.675-2.325c2.2333 0 4.125.775 5.675 2.325s2.325 3.44167 2.325 5.675c0 2.2333-.775 4.125-2.325 5.675s-3.4417 2.325-5.675 2.325z" fill="#002145"/></svg>

<svg width="24" height="24" viewBox="0 0 24 24" fill="none" xmlns="http://www.w3.org/2000/svg">
<path d="M12 16L10.6 14.6L12.2 13H8V11H12.2L10.6 9.4L12 8L16 12L12 16ZM12 22C13.3833 22 14.6833 21.7373 15.9 21.212C17.1167 20.6873 18.175 19.975 19.075 19.075C19.975 18.175 20.6873 17.1167 21.212 15.9C21.7373 14.6833 22 13.3833 22 12C22 10.6167 21.7373 9.31667 21.212 8.1C20.6873 6.88333 19.975 5.825 19.075 4.925C18.175 4.025 17.1167 3.31233 15.9 2.787C14.6833 2.26233 13.3833 2 12 2C10.6167 2 9.31667 2.26233 8.1 2.787C6.88333 3.31233 5.825 4.025 4.925 4.925C4.025 5.825 3.31267 6.88333 2.788 8.1C2.26267 9.31667 2 10.6167 2 12C2 13.3833 2.26267 14.6833 2.788 15.9C3.31267 17.1167 4.025 18.175 4.925 19.075C5.825 19.975 6.88333 20.6873 8.1 21.212C9.31667 21.7373 10.6167 22 12 22ZM12 20C9.76667 20 7.875 19.225 6.325 17.675C4.775 16.125 4 14.2333 4 12C4 9.76667 4.775 7.875 6.325 6.325C7.875 4.775 9.76667 4 12 4C14.2333 4 16.125 4.775 17.675 6.325C19.225 7.875 20 9.76667 20 12C20 14.2333 19.225 16.125 17.675 17.675C16.125 19.225 14.2333 20 12 20Z" fill="#002145"/>
</svg>
